!!!!SEGMENT: pl-cz--ii-87--012_astorga-emanuele-d--inviollata.krn
!!!cenid: 18xx:1215
!!!COM: Astorga, Emanuele d'
!!!COM-rismid: pe30000157
!!!CDT: 1680/03/20-1757
!!!CNT: Italian
!!!OTL: Inviollata
!!!PDT: 1888
!!!AGN: Sacred
!!!SMS-siglum: PL-CZ
!!!SMS-shelfmark: II-87
!!!SMS-shelfwork: 012 W
!!!SMS-variant:
!!!SMS-altvar:
!!!NIFC-rismid: 300033235
!!!URL-scan: http://repozytorium.nifc.pl/skany/pl-cz-nut--ii-87
!!!ONB-nifc:
!!!AIN: 1 organ 4 vox
!!!key:
**kern	**kern	**dynam	**kern	**dynam	**kern	**dynam	**kern	**dynam	**kern	**dynam
*part5	*part5	*part5	*part4	*part4	*part3	*part3	*part2	*part2	*part1	*part1
*staff6	*staff5	*	*staff4	*	*staff3	*	*staff2	*	*staff1	*
*Iorgan	*Iempty	*	*Ivox	*	*Ivox	*	*Ivox	*	*Ivox	*
*I"Organo	*	*	*I"Canto	*	*I"Canto	*	*I"Canto	*	*I"Canto	*
*I'org	*	*	*I'c	*	*I'c	*	*I'c	*	*I'c	*
*clefF4	*clefG2	*	*clefG2	*	*clefG2	*	*clefG2	*	*clefG2	*
*k[b-e-a-d-g-]	*k[b-e-a-d-g-]	*	*k[b-e-a-d-g-]	*	*k[b-e-a-d-g-]	*	*k[b-e-a-d-g-]	*	*k[b-e-a-d-g-]	*
*D-:	*D-:	*	*D-:	*	*D-:	*	*D-:	*	*D-:	*
*M4/4	*M4/4	*	*M4/4	*	*M4/4	*	*M4/4	*	*M4/4	*
*met(c)	*met(c)	*	*met(c)	*	*met(c)	*	*met(c)	*	*met(c)	*
=1	=1	=1	=1	=1	=1	=1	=1	=1	=1	=1
!	!	!	!	!	!	!	!	!	!LO:TX:a:t=Recit Inviollata a 4 voix&colon; Astorg	!
!	!	!	!	!	!	!	!	!	!LO:TX:a:t=Lento	!
1r	1a- 1f 1d-	p p	1d-	p	1f	p	1a-	p	4.dd-\	p
.	.	.	.	.	.	.	.	.	8a-/	.
.	.	.	.	.	.	.	.	.	16b-/	.
.	.	.	.	.	.	.	.	.	16ryy	.
!	!	!	!	!	!	!	!	!	!LO:N:vis=8	!
.	.	.	.	.	.	.	.	.	(16a-\LL	.
!	!	!	!	!	!	!	!	!	!LO:N:vis=8	!
.	.	.	.	.	.	.	.	.	16dd-\JJ)	.
.	.	.	.	.	.	.	.	.	8dd-\	.
.	.	.	.	.	.	.	.	.	8r	.
=2	=2	=2	=2	=2	=2	=2	=2	=2	=2	=2
1r	1b- 1g- 1d-	.	1d-	.	1g-	.	1b-	.	(4b-\	.
.	.	.	.	.	.	.	.	.	8qdd-/	.
.	.	.	.	.	.	.	.	.	8cc\L	.
.	.	.	.	.	.	.	.	.	8b-\J)	.
.	.	.	.	.	.	.	.	.	4b-\	.
.	.	.	.	.	.	.	.	.	8b-\	.
.	.	.	.	.	.	.	.	.	8r	.
=3	=3	=3	=3	=3	=3	=3	=3	=3	=3	=3
1ryy	1a- 1g- 1c	f >	1c	f > ]]	1g-	f > ]]	1a-	f > ]]	2ee-\	f >
.	.	.	.	.	.	.	.	.	8ff\L	.
.	.	.	.	.	.	.	.	.	8ee-\J	.
.	.	.	.	.	.	.	.	.	8cc\L	.
.	.	.	.	.	.	.	.	.	8a-\J	]]
=4	=4	=4	=4	=4	=4	=4	=4	=4	=4	=4
!	!	!	!	!	!	!	!	!	!LO:N:vis=4.	!
1r	1a- 1f 1d-	]	2d-/	.	2f/	.	2a-/	.	4dd-\	.
.	.	.	.	.	.	.	.	.	8a-/	.
.	.	.	.	.	.	.	.	.	8b-/	.
.	.	.	4d-/	.	4f/	.	4a-/	.	4a-/	.
.	.	.	4r	.	4r	.	4r	.	4r	.
=5	=5	=5	=5	=5	=5	=5	=5	=5	=5	=5
!	!	!	!	!LO:DY:a	!	!	!	!	!	!
1r	1f 1d- 1B-	p p	1B-	p	1d-	p	1f	p	4b-\	p
.	.	.	.	.	.	.	.	.	8cc\L	.
.	.	.	.	.	.	.	.	.	8dd-\J	.
.	.	.	.	.	.	.	.	.	(4.ff\	.
.	.	.	.	.	.	.	.	.	16ee-\LL	.
.	.	.	.	.	.	.	.	.	16dd-\JJ)	.
=6	=6	=6	=6	=6	=6	=6	=6	=6	=6	=6
1r	1f 1e- 1An	.	1An	.	1e-	.	1f	.	4.cc\	.
.	.	.	.	.	.	.	.	.	(8qee-/	.
.	.	.	.	.	.	.	.	.	8dd-\)	.
.	.	.	.	.	.	.	.	.	4cc\	.
.	.	.	.	.	.	.	.	.	4r	.
=7	=7	=7	=7	=7	=7	=7	=7	=7	=7	=7
.	.	.	.	.	.	.	.	.	8qb-/	p
2B-\	2f 2d-/	pp	2d-/	p	2b-\	p	2b-\	p	4dd-\	.
.	.	.	.	.	.	.	.	.	8b-\	.
.	.	.	.	.	.	.	.	.	8cc\	.
2G- 2D-\	2d- 2B-/	.	2d-/	.	2g-/	.	2g-/	.	4dd-\	.
.	.	.	.	.	.	.	.	.	4ee-\	.
=8	=8	=8	=8	=8	=8	=8	=8	=8	=8	=8
2.F\	2.c 2.A-/	.	2.A-/	.	2.c/	.	2.f/	.	(4.ff\	.
.	.	.	.	.	.	.	.	.	8cc\)	.
.	.	.	.	.	.	.	.	.	4cc\	.
4r;	4r;	.	4r;	.	4r;	.	4r;	.	4r;	.
=9	=9	=9	=9	=9	=9	=9	=9	=9	=9	=9
!	!	!	!LO:N:vis=4	!	!	!	!	!	!	!
2.D- 2.DD-/	(8fL 8d-/	.	4.d-/	.	4.f/	.	4a-/	.	4ff\	.
.	8A-/	.	.	.	.	.	.	.	.	.
.	8f 8d-/	.	.	.	.	.	8g-/L	.	8ee-\L	.
.	8A-/J)	.	8d-/	.	8f/	.	8f/J	.	8dd-\J	.
*	*rep	*	*	*	*	*	*	*	*	*
.	(8fL 8d-/	.	4d-/	.	4f/	.	4f/	.	4a-/	.
.	8A-/	.	.	.	.	.	.	.	.	.
4D- 4DD-/	8f 8d-/	.	8.d-/	.	8.f/	.	8.a-/	.	8.dd-\	.
.	8A-/J)	.	.	.	.	.	.	.	.	.
.	.	.	16d-/	.	16f/	.	16a-/	.	16ee-\	.
*	*Xrep	*	*	*	*	*	*	*	*	*
=10	=10	=10	=10	=10	=10	=10	=10	=10	=10	=10
*	*tremolo	*	*	*	*	*	*	*	*	*
2AA-/	(16g- 16e-/LL	.	2e-/	.	2g-/	.	2a-/	.	(4.dd-\	.
.	16A-/)	.	.	.	.	.	.	.	.	.
.	16g- 16e-/	.	.	.	.	.	.	.	.	.
.	16A-/)	.	.	.	.	.	.	.	.	.
.	16g- 16e-/	.	.	.	.	.	.	.	.	.
.	16A-/)	.	.	.	.	.	.	.	.	.
.	16g- 16e-/	.	.	.	.	.	.	.	8cc\)	.
.	16A-/)JJ	.	.	.	.	.	.	.	.	.
4AA-/	(16g- 16e-/LL	.	4e-/	.	4g-/	.	4a-/	.	4ee-\	.
.	16A-/)	.	.	.	.	.	.	.	.	.
.	16g- 16e-/	.	.	.	.	.	.	.	.	.
.	16A-/)	.	.	.	.	.	.	.	.	.
4r	16g- 16e-/	.	4r	.	4r	.	4r	.	4r	.
.	16A-/)	.	.	.	.	.	.	.	.	.
.	16g- 16e-/	.	.	.	.	.	.	.	.	.
.	16A-/)JJ	.	.	.	.	.	.	.	.	.
=11	=11	=11	=11	=11	=11	=11	=11	=11	=11	=11
*	*rep	*	*	*	*	*	*	*	*	*
4C 4CC/	(16g- 16e-/LL	.	2A-/	.	2e-/	.	2g-/	.	(4.ee-\	.
.	16A-/)	.	.	.	.	.	.	.	.	.
.	16g- 16e-/	.	.	.	.	.	.	.	.	.
.	16A-/)	.	.	.	.	.	.	.	.	.
4BB-/	16g- 16e-/	.	.	.	.	.	.	.	.	.
.	16A-/)	.	.	.	.	.	.	.	.	.
.	16g- 16e-/	.	.	.	.	.	.	.	8cc\)	.
.	16A-/)JJ	.	.	.	.	.	.	.	.	.
!	!	!	!LO:N:vis=4	!	!	!	!	!	!	!
4AA-/	(16g- 16e-/LL	.	4.A-/	.	4.e-/	.	4.g-/	.	4a-/	.
.	16A-/)	.	.	.	.	.	.	.	.	.
.	16g- 16e-/	.	.	.	.	.	.	.	.	.
.	16A-/)	.	.	.	.	.	.	.	.	.
4r	16g- 16e-/	.	.	.	.	.	.	.	8dd-\	.
.	16A-/)	.	.	.	.	.	.	.	.	.
.	16g- 16e-/	.	8A-/	.	8e-/	.	8g-/	.	8cc\	.
.	16A-/)JJ	.	.	.	.	.	.	.	.	.
*	*Xrep	*	*	*	*	*	*	*	*	*
*	*Xtremolo	*	*	*	*	*	*	*	*	*
=12	=12	=12	=12	=12	=12	=12	=12	=12	=12	=12
4AA-/	8g-L 8c/	.	4..A-/	.	4..e-/	.	4..g-/	.	4ee-\	.
.	8A-/	.	.	.	.	.	.	.	.	.
4r	8g- 8c/	.	.	.	.	.	.	.	8.ee-\	.
.	8A-/J	.	.	.	.	.	.	.	.	.
.	.	.	16A-/	.	16d-/	.	16a-/	.	16ff\	.
4D- 4DD-/	8fL 8d-/	.	4d-/	.	4f/	.	4f/	.	4dd-\	.
.	8A-/	.	.	.	.	.	.	.	.	.
4r	8f 8d-/	.	4r	p	4r	.	4r	p	4r	.
.	8A-/J	.	.	.	.	.	.	.	.	.
=13	=13	=13	=13	=13	=13	=13	=13	=13	=13	=13
8BB-/L	8r	.	2d-/	.	2f/	p	4b-\	.	1r	.
8r	8fL 8d-/	.	.	.	.	.	.	.	.	.
8D-/J	8r	.	.	.	.	.	(8.cc\L	.	.	.
8r	8fJ 8d-/	.	.	.	.	.	.	.	.	.
.	.	.	.	.	.	.	16dd-\Jk)	.	.	.
8F\L	8r	.	4d-/	.	4f/	.	4dd-\	.	.	.
8r	8fL 8d-/	.	.	.	.	.	.	.	.	.
8D-\J	8r	.	4d-/	.	4f/	.	8cc\	.	.	.
8ryy	8fJ 8d-/	.	.	.	.	.	8b-\	.	.	.
=14	=14	=14	=14	=14	=14	=14	=14	=14	=14	=14
8C/	8r	.	2c/	.	2g-/	.	4..b-\	.	4ee-\	p
8r	8g- 8e- 8c/	.	.	.	.	.	.	.	.	.
8E-\	8r	.	.	.	.	.	.	.	8.dd-\	.
8r	8g- 8e- 8c/	.	.	.	.	.	.	.	.	.
.	.	.	.	.	.	.	16an/	.	16cc\	.
8F\	8r	.	4f/	.	4f/	.	4a/	.	4cc\	.
8r	8f 8c 8An/	.	.	.	.	.	.	.	.	.
8FF/	8r	.	4r	.	4r	.	4r	.	8ff\	.
!	!LO:TX:b:t=V.S.	!	!	!	!	!	!	!	!	!
8r	8f 8c 8A/	.	.	.	.	.	.	.	8cc\	.
=15	=15	=15	=15	=15	=15	=15	=15	=15	=15	=15
8BB-/	8r	.	2d-/	.	2f/	.	(4b-\	.	(4.dd-\	.
8r	8f 8d-/	.	.	.	.	.	.	.	.	.
8D-\	8r	.	.	.	.	.	8.cc\L	.	.	.
8r	8f 8d-/	.	.	.	.	.	.	.	8cc\)	.
.	.	.	.	.	.	.	16dd-\Jk)	.	.	.
8F\	8r	.	4B-/	.	4f/	.	4dd-\	.	4b-\	.
8r	8f 8d-/	.	.	.	.	.	.	.	.	.
8BB-/	8r	.	4d-/	.	4f/	.	8.cc\L	.	4r	.
8r	8f 8d-/	.	.	.	.	.	.	.	.	.
.	.	.	.	.	.	.	16b-\Jk	.	.	.
=16	=16	=16	=16	=16	=16	=16	=16	=16	=16	=16
8C/	8r	.	4..c/	.	4..g-/	.	4..b-\	.	4ee-\	.
8r	8g- 8e- 8c/	.	.	.	.	.	.	.	.	.
8E-\	8r	.	.	.	.	.	.	.	8.dd-\	.
8r	8g- 8e- 8c/	.	.	.	.	.	.	.	.	.
.	.	.	16f/	.	16an/	.	16an/	.	16cc\	.
8F\	8r	.	4f/	.	4f/	.	4a/	.	4cc\	.
8r	8f 8c 8An/	.	.	.	.	.	.	.	.	.
8FF/	8r	.	4r	.	4r	.	4r	.	4r	.
8r	8f 8c 8A/	.	.	.	.	.	.	.	.	.
=17	=17	=17	=17	=17	=17	=17	=17	=17	=17	=17
*	*^	*	*	*	*	*	*	*	*	*
*	*	*^	*	*	*	*	*	*	*	*	*
2D-\	4.b-/	4f\	4rGGyy	.	2d-/	.	2f/	.	(4f/	.	(4.b-\	.
.	.	4reyy	2g-\	.	.	.	.	.	4gn/)	.	.	.
.	8bn/	.	.	.	.	.	.	.	.	.	8bn\)	.
4C/	4cc/	4e-\	.	.	4c/	.	4e-/	.	4g/	.	4cc\	.
4BB-/	4dd-/	4en\	4rBByy	.	4B-/	.	4en/	.	4g/	.	4dd-\	.
*	*v	*v	*v	*	*	*	*	*	*	*	*	*
=18	=18	=18	=18	=18	=18	=18	=18	=18	=18	=18
4AA-/	4.cc 4.a- 4.f/	.	4.A-/	.	(4f/	.	4.a-/	.	4.cc\	.
4C/	.	.	.	.	8c/L	.	.	.	.	.
.	8b-X 8gn 8en/	.	8c/	.	8e-/J)	.	8gn/	.	8b-X\	.
4F\	4a- 4f/	.	4f/	.	4f/	.	4a-/	.	4a-/	.
!	!	!	!LO:TX:t=P:problem=łuk widoczny w kolejnym takcie	!	!	!	!	!	!	!
4E-\	4a- 4f 4e-X 4c/	.	(4e-X/	.	(4f/	.	(4an/	.	(4an/	.
=19	=19	=19	=19	=19	=19	=19	=19	=19	=19	=19
*	*^	*	*	*	*	*	*	*	*	*
4D-\	4b- 4f 4d-/	4rcyy	.	4d-/)	.	4f/)	.	4b-\)	.	4b-\)	.
4Dn\	8b-/L	4a-\	.	8d-/	.	8a-/	.	8b-\	.	8ff\	.
.	8bn/J	.	.	8dn/	.	8a-/	.	8bn\	.	8ff\	.
2E-\	4cc 4a-/	4e-X\	.	4e-/	.	4a-/	.	4ccn\	.	4ee-\	.
.	4dd-/	4b-X 4gn 4e-\	.	8e-/	.	8gn/	.	8b-X\	.	8dd-\	.
.	.	.	.	8e-/	.	8e-/	.	8b-\	.	8gn/	.
*	*v	*v	*	*	*	*	*	*	*	*	*
=20	=20	=20	=20	=20	=20	=20	=20	=20	=20	=20
*	*	*	*	*	*	*	*	*	*2\right	*
2E-\	2dd- 2b- 2gn 2e-/	.	2d-/	.	2e-/	.	2gn/	.	2b-\	.
8AA-\L	4cc 4a-\	.	4c/	.	4e-/	.	4a-/	.	4a-/	.
8A-\	.	.	.	.	.	.	.	.	.	.
8A-\	4r	p	4r	p	4r	p	4r	p	4r	.
8A-\J	.	.	.	.	.	.	.	.	.	.
=21	=21	=21	=21	=21	=21	=21	=21	=21	=21	=21
*^	*	*	*	*	*	*	*	*	*	*
4r	2.AA-\	1a- 1e- 1c	.	1r	.	1r	.	1r	.	2a-/	p
4A-/	.	.	.	.	.	.	.	.	.	.	.
4A-/	.	.	.	.	.	.	.	.	.	4a-/	.
4A-/	4r	.	.	.	.	.	.	.	.	8.a-/	.
.	.	.	.	.	.	.	.	.	.	16a-/	.
=22	=22	=22	=22	=22	=22	=22	=22	=22	=22	=22	=22
4r	2.GGn\	1b- 1gn 1d-	.	1r	.	2gn/	.	1r	.	1b-	.
4G-/	.	.	.	.	.	.	.	.	.	.	.
4G-/	.	.	.	.	.	4g/	.	.	.	.	.
4G-/	4r	.	.	.	.	8.g/	.	.	.	.	.
.	.	.	.	.	.	16g/	.	.	.	.	.
=23	=23	=23	=23	=23	=23	=23	=23	=23	=23	=23	=23
!	!	!	!	!	!	!LO:TX:a:t=cres	!	!	!	!	!
4r	2.AA-\	1cc 1a- 1g- 1e-	.	2e-/	p	1g-X	.	2a-/	.	2cc\	.
4A-/	.	.	.	.	.	.	.	.	.	.	.
4A-/	.	.	.	4e-/	.	.	.	4a-/	.	4ryy	.
!	!	!	!	!LO:TX:a:t=cres	!	!	!	!LO:TX:a:t=cres	!	!	!
!	!	!	!	!LO:N:vis=8	!	!	!	!LO:N:vis=8	!	!LO:N:vis=4	!
4A-/	4r	.	.	8.e-/	.	.	.	8.a-/	.	8.cc\	.
!	!	!	!	!	!	!	!	!	!	!LO:N:vis=8	!
!	!	!	!	!	!	!	!	!	!	!LO:TX:a:t=cres	!
.	.	.	.	16e-/	.	.	.	16a-/	.	16cc\	.
*v	*v	*	*	*	*	*	*	*	*	*	*
=24	=24	=24	=24	=24	=24	=24	=24	=24	=24	=24
*	*rep	*	*	*	*	*	*	*	*	*
*^	*	*	*	*	*	*	*	*	*	*
4r	2.AA-\	1dd- 1a- 1f-X	.	1d-	.	2f-X/	.	1a-	.	2dd-\	.
4A-/	.	.	.	.	.	.	.	.	.	.	.
4A-/	.	.	.	.	.	4.f-/	.	.	.	4.dd-\	.
4A-/	4r	.	.	.	.	.	.	.	.	.	.
.	.	.	.	.	.	8f-/	.	.	.	8dd-\	.
*	*Xrep	*	*	*	*	*	*	*	*	*	*
*v	*v	*	*	*	*	*	*	*	*	*	*
=25	=25	=25	=25	=25	=25	=25	=25	=25	=25	=25
*	*rep	*	*	*	*	*	*	*	*	*
*^	*	*	*	*	*	*	*	*	*	*
!	!	!	!	!	!	!	!	!	!	!LO:TX:a:t=rit	!
4r	2.AA-\	1ee- 1cc 1a- 1g-	.	2c/	.	2g-/	.	2a-/	.	2ee-\	.
4A-/	.	.	.	.	.	.	.	.	.	.	.
!	!	!	!	!LO:N:vis=4	!	!	!	!	!	!	!
4A-/	.	.	.	4.c/	.	4.g-/	.	4.a-/	.	4ee-\	.
4A-/	4r	.	.	.	.	.	.	.	.	8ee-\	.
.	.	.	.	8c/	.	8g-/	.	8a-/	.	8ee-\	.
*	*Xrep	*	*	*	*	*	*	*	*	*	*
*v	*v	*	*	*	*	*	*	*	*	*	*
=26	=26	=26	=26	=26	=26	=26	=26	=26	=26	=26
*	*rep	*	*	*	*	*	*	*	*	*
*^	*	*	*	*	*	*	*	*	*	*
.	.	.	.	.	.	.	.	8qb-/	.	8qgg-/	.
4r	2.AA-\	1ff-X 1dd- 1a- 1f-X	.	2.d-/	.	4.f-X/	.	4.a-/	.	2.ff-X\	.
4A-/	.	.	.	.	.	.	.	.	.	.	.
.	.	.	.	.	.	8f-/	.	8a-/	.	.	.
4A-/	.	.	.	.	.	4.f-/	.	4.f-X/	.	.	.
4A-/	4r	.	.	4d-/	.	.	.	.	.	4ff-\	.
.	.	.	.	.	.	8f-/	.	8f-/	.	.	.
*	*Xrep	*	*	*	*	*	*	*	*	*	*
*v	*v	*	*	*	*	*	*	*	*	*	*
=27	=27	=27	=27	=27	=27	=27	=27	=27	=27	=27
4An 4AAn\	4ff-X 4gn\	.	4B--/	.	4f-X/	.	4gn/	.	4dd-\	.
4r	4r	.	8B--/	.	8f-/	.	8g/	.	8dd-\	.
.	.	.	8r	.	8r	.	8r	.	8r	.
4B-- 4BB--\	4dd- 4g\	.	4.B--/	.	4.f-/	.	4.g/	.	4.dd-\	.
4r	4r	.	.	.	.	.	.	.	.	.
.	.	.	8B--/	.	8d-/	.	8g/	.	8dd-\	.
=28	=28	=28	=28	=28	=28	=28	=28	=28	=28	=28
4A- 4AA-\	8cc 8a-/	.	4A-/	.	4e-/	.	4a-/	.	4cc\	.
.	4a- 4c/	.	.	.	.	.	.	.	.	.
4C/	.	.	4A-/	.	4e-/	.	4a-/	.	4cc\	.
.	4a- 4c/	.	.	.	.	.	.	.	.	.
4E-\	.	.	2r	p	2r	p	2r	p	2r	.
.	4a- 4c/	.	.	.	.	.	.	.	.	.
4A-\	.	.	.	.	.	.	.	.	.	.
.	8a- 8c/	.	.	.	.	.	.	.	.	.
=29	=29	=29	=29	=29	=29	=29	=29	=29	=29	=29
4DD-/	4r	.	2d-/	.	2f-X/	.	1r	.	4.a-/	.
4r	4a- 4f-X 4d-/	.	.	.	.	.	.	.	.	.
.	.	.	.	.	.	.	.	.	8a-/	.
4D-\	4r	.	4d-/	.	4f-/	.	.	.	4dd-\	.
4r	4a- 4f- 4d-/	.	4d-/	.	4f-/	.	.	.	8ee-\L	.
.	.	.	.	.	.	.	.	.	8ff-X\J	.
=30	=30	=30	=30	=30	=30	=30	=30	=30	=30	=30
4AA-/	4r	.	2e-/	.	2g-/	.	4cc\	.	(2ee-\	.
4r	4a- 4e- 4c/	.	.	.	.	.	4a-/	.	.	.
4A-\	4r	.	2e-/	.	2g-/	.	8a-/L	.	4cc\)	.
.	.	.	.	.	.	.	8b--/J	.	.	.
4r	4a- 4e- 4c/	.	.	.	.	.	8a-/L	.	4r	.
.	.	.	.	.	.	.	8g-/J	.	.	.
=31	=31	=31	=31	=31	=31	=31	=31	=31	=31	=31
4DD-/	4r	.	4d-/	.	4f/	.	2f-X/	.	8.a-/	.
.	.	.	.	.	.	.	.	.	16a-/	.
!	!LO:N:vis=8	!	!	!	!	!	!	!	!	!
4r	4a- 4f-X 4d-/	.	8ryy	.	8ryy	.	.	.	4a-/	.
.	.	.	8d-/	.	8f/	.	.	.	.	.
4D-\	4r	.	4d-/	.	4f/	.	8a-/	.	4ff-X\	.
.	.	.	.	.	.	.	16ryy	.	.	.
.	.	.	.	.	.	.	16a-/	.	.	.
4r	4a- 4f- 4d-/	.	4r	.	4r	.	4a-/	.	8cc\	.
.	.	.	.	.	.	.	.	.	8dd-\	.
=32	=32	=32	=32	=32	=32	=32	=32	=32	=32	=32
4AA-/	4r	.	4c/	.	4e-/	.	4a-/	.	4ee-\	.
!	!	!	!LO:N:vis=8	!	!	!	!	!	!	!
4r	4a- 4e- 4c/	.	8.c/	.	8.e-/	.	8.cc\	.	4r	.
.	.	.	16c/	.	16e-/	.	16cc\	.	.	.
4A-\	4r	.	4c/	.	4a-/	.	4ee-\	.	2r	.
4r	4a- 4e- 4c/	.	4r	.	4r	.	4r	.	.	.
=33	=33	=33	=33	=33	=33	=33	=33	=33	=33	=33
4DD-/	4r	.	2d-/	.	2f-X/	.	1r	.	4.a-/	.
4r	4a- 4f-X 4d-/	.	.	.	.	.	.	.	.	.
.	.	.	.	.	.	.	.	.	8a-/	.
4D-\	4r	.	4d-/	.	4f-/	.	.	.	4dd-\	.
4r	4a- 4f- 4d-/	.	4d-/	.	4f-/	.	.	.	8ee-\L	.
.	.	.	.	.	.	.	.	.	8ff-X\J	.
=34	=34	=34	=34	=34	=34	=34	=34	=34	=34	=34
4AA-/	4r	.	2e-/	.	2g-/	.	4cc\	.	(2ee-\	.
4r	4a- 4e- 4c/	.	.	.	.	.	4a-/	.	.	.
4A-\	4r	.	2e-/	.	2g-/	.	8a-/L	.	4cc\)	.
.	.	.	.	.	.	.	8b--/J	.	.	.
4r	4a- 4e- 4c/	.	.	.	.	.	8a-/	.	4r	.
.	.	.	.	.	.	.	8g-/	.	.	.
=35	=35	=35	=35	=35	=35	=35	=35	=35	=35	=35
!	!	!	!	!	!	!	!LO:N:vis=8	!	!LO:N:vis=8	!
.	.	.	8qqd-/	.	8qb-/	.	8qdd-/	.	8qdd-/	.
4DD-/	4r	.	2d-/	.	2f-X/	.	8.f-X/	.	8.a-/	.
.	.	.	.	.	.	.	16f-/	.	16a-/	.
4r	4a- 4f-X 4d-/	.	.	.	.	.	4a-/	.	4a-/	.
4D-\	4r	.	4.d-/	.	4.f-/	.	4a-/	.	4ff-X\	.
4r	4a- 4f- 4d-/	.	.	.	.	.	8a-/	.	8cc\	.
.	.	.	8d-/	.	8f-/	.	8a-/	.	8dd-\	.
=36	=36	=36	=36	=36	=36	=36	=36	=36	=36	=36
4A- 4AA-\	4a- 4e- 4c/	.	8A-/	.	8e-/	.	8cc\	.	8ee-\	.
.	.	.	8r	.	8r	.	8r	.	8r	.
4r	4r	.	4r	.	4r	.	4r	.	8.a-/	.
.	.	.	.	.	.	.	.	.	16a-/	.
!	!	!	!	!	!	!	!	!	!LO:TX:a:t=rit	!
4r	4r	.	4r	.	4r	.	4r	.	4a-/	.
!	!	!	!	!	!	!	!LO:N:vis=8..	!	!	!
!	!	!	!LO:N:vis=8..	!	!LO:N:vis=8..	!LO:DY:a	!LO:TX:a:t=rit	!	!	!
[4A- [4AA-\	[4a- [4e- [4c/	.	8.A-/	.	8.c/	pp	8.e-/	.	8a-/	.
.	.	.	.	.	.	.	.	.	8r	.
!	!	!	!	!	!	!	!	!LO:DY:a	!	!
.	.	.	16A-/	.	16c/	.	16e-/	pp	.	.
=37	=37	=37	=37	=37	=37	=37	=37	=37	=37	=37
4A-] 4AA-\]	4a-] 4e-] 4c/]	.	4A-/	.	4c/	.	4e-/	.	4r	.
8A- 8AA-\	8a- 8f-X 8d-/	.	8A-/	.	8d-/	.	8f-X/	.	8.a-/	.
8r	8r	.	8r	.	8r	.	8r	.	.	.
.	.	.	.	.	.	.	.	.	16a-/	.
4r	4r	.	4r	.	4r	.	4r	.	4a-/	.
[4A- [4AA-\	[4a- [4f- [4d-/	.	8.A-/	.	8.d-/	.	8.f-/	.	8a-/	.
.	.	.	.	.	.	.	.	.	8r	.
.	.	.	16A-/	.	16d-/	.	16f-/	.	.	.
=38	=38	=38	=38	=38	=38	=38	=38	=38	=38	=38
4A-] 4AA-\]	4a-] 4f-] 4d-/]	.	4A-/	.	4d-/	.	4f-X/	.	4r	.
8A- 8AA-\	8a- 8fn 8dn/	.	8A-/	.	8dn/	.	8fn/	.	4a-/	.
8r	8r	.	8r	.	8r	.	8r	.	.	.
4r	4r	.	4r	.	4r	.	4r	.	8a-/	.
.	.	.	.	.	.	.	.	.	8a-/	.
4A- 4AA-\	4a- 4f 4d/	.	4A-/	.	4d/	.	4f/	.	4a-/	.
=39	=39	=39	=39	=39	=39	=39	=39	=39	=39	=39
2A- 2AA-;\	2a- 2g- 2e-;/	.	2A-;/	.	2e-;/	.	2g-;/	.	4r	.
.	.	.	.	.	.	.	.	.	4a-;/	.
.	.	.	.	.	.	.	.	.	8qqb-/L	.
.	.	.	.	.	.	.	.	.	8qqa-/	.
.	.	.	.	.	.	.	.	.	8qqdd-/	.
.	.	.	.	.	.	.	.	.	8qqcc/J	.
.	.	.	.	.	.	.	.	.	4qqff\	.
.	.	.	.	.	.	.	.	.	4qqee-\	.
.	.	.	.	.	.	.	.	.	4qqcc\	.
.	.	.	.	.	.	.	.	.	4qqa-;/	.
2r;	2r;	<	8A-/	.	8e-/	.	8g-/	.	8b-\	.
.	.	.	8A-/	.	8e-/	.	8g-/	.	8cc\	.
.	.	.	8r	<	8r	.	8r	.	8r	.
.	.	.	8r;	.	8r;	<	8r;	<	8ryy	.
=40	=40	=40	=40	=40	=40	=40	=40	=40	=40	=40
!	!	!	!	!	!	!	!	!	!LO:TX:a:t=Tempo	!
4DD-/	8r	.	1r	[[	1r	[[	1r	[[	4.dd-\	<
.	8A-/L	.	.	.	.	.	.	.	.	.
4r	8f 8d-/	.	.	.	.	.	.	.	.	.
.	8A-/J	.	.	.	.	.	.	.	8cc\	.
4D-\	8r	.	.	.	.	.	.	.	8ee-\	.
.	8A-/L	.	.	.	.	.	.	.	8dd-\	.
4r	8f 8d-/	[ >	.	.	.	.	.	.	8f/	.
.	8A-/J	.	.	.	.	.	.	.	8b-/	[[
=41	=41	=41	=41	=41	=41	=41	=41	=41	=41	=41
!	!	!	!	!	!	!	!	!	!	!LO:DY:a
2C/	8r	.	2A-/	>	4.c/	>	4.e-/	>	4.b-\	> >
.	8A-/L	.	.	.	.	.	.	.	.	.
.	8g- 8e-/	.	.	.	.	.	.	.	.	.
.	8A-/J	.	.	.	8d-/	.	8f/	.	8a-/	.
4E-\	8r	.	4A-/	.	8e-/	.	8g-/	.	4a-/	.
*	*rep	*	*	*	*	*	*	*	*	*
.	8A-/L	.	.	.	8e-/	.	8g-/	.	.	.
4C/	8g- 8e-/	.	4r	]	8d-/	.	8f/	.	4r	]]
.	8A-/J	.	.	.	8c/	]]	8en/	]]	.	.
*	*Xrep	*	*	*	*	*	*	*	*	*
=42	=42	=42	=42	=42	=42	=42	=42	=42	=42	=42
!	!	!	!	!	!LO:N:vis=4	!	!	!	!	!LO:DY:a
4D- 4DD-/	8r	] <	2d-/	<	4.d-/	<	4.f/	<	4.dd-\	[ < <
.	8A-/L	.	.	.	.	.	.	.	.	.
4r	8f 8d-/	.	.	.	.	.	.	.	.	.
.	8A-/J	.	.	.	8f/	.	8a-/	.	8cc\	.
4D- 4DD-/	8r	.	4d-/	.	4f/	.	4a-/	.	8ee-\	.
*	*rep	*	*	*	*	*	*	*	*	*
.	8A-/L	.	.	.	.	.	.	.	8dd-\	.
4r	8f 8d-/	.	4r	[[	4r	[[	4r	[[	8f/	.
.	8A-/J	.	.	.	.	.	.	.	8b-/	[ [[
*	*Xrep	*	*	*	*	*	*	*	*	*
=43	=43	=43	=43	=43	=43	=43	=43	=43	=43	=43
!	!	!	!	!	!LO:N:vis=4	!	!	!	!	!
2C/	8r	[ >	1A-	>]	4.c/	>	4.e-/	>	4.b-\	>
.	8A-/L	.	.	.	.	.	.	.	.	.
.	8g- 8e-/	.	.	.	.	.	.	.	.	.
.	8A-/J	.	.	.	8d-/	.	8f/	.	8a-/	.
4E-\	8r	.	.	.	8e-/	.	8g-/	.	4a-/	.
*	*rep	*	*	*	*	*	*	*	*	*
.	8A-/L	.	.	.	8e-/	.	8g-/	.	.	.
4C/	8g- 8e-/	.	.	.	8d-/	.	8f/	.	4r	]
.	8A-/J	.	.	.	8c/	]	8en/	]	.	.
*	*Xrep	*	*	*	*	*	*	*	*	*
=44	=44	=44	=44	=44	=44	=44	=44	=44	=44	=44
4D- 4DD-/	8r	]	2d-/	.	2d-/	.	2f/	.	(4.dd-\	.
.	8A-/L	.	.	.	.	.	.	.	.	.
4r	8f 8d-/	.	.	.	.	.	.	.	.	.
.	8A-/J	.	.	.	.	.	.	.	8cc\)	.
4BB-/	8r	.	4B-/	.	4d-/	.	4f/	.	8ee-\	.
!	!	!	!	!	!	!	!	!	!LO:TX:a:t=cres	!
.	8A-/L	.	.	.	.	.	.	.	8dd-\	.
!	!LO:TX:b:t=V.S.	!	!	!	!	!	!	!	!	!
4r	8f 8d-/	.	4r	.	4r	.	4r	.	8f/	.
.	8A-/J	.	.	.	.	.	.	.	8b-\	.
=45	=45	=45	=45	=45	=45	=45	=45	=45	=45	=45
!	!	!	!	!	!LO:N:vis=4	!	!	!	!	!
4FF/	8r	.	1c	.	4.c/	.	4.e-/	.	4.b-\	.
.	8c/L	.	.	.	.	.	.	.	.	.
4r	8an 8e-/	.	.	.	.	.	.	.	.	.
.	8c/J	.	.	.	8d-/	.	8f/	.	8an/	.
4F\	8r	.	.	.	8e-/	.	8g-/	.	4a/	.
*	*rep	*	*	*	*	*	*	*	*	*
.	8c/L	.	.	.	8e-/	.	8g-/	.	.	.
4r	8a 8e-/	.	.	.	8d-/	.	8f/	.	4r	.
.	8c/J	.	.	.	8f/	.	8an/	.	.	.
*	*Xrep	*	*	*	*	*	*	*	*	*
=46	=46	=46	=46	=46	=46	=46	=46	=46	=46	=46
.	.	.	8qa-/	.	.	.	(8qa-/	.	(8qcc/	.
4B- 4BB-\	2b- 2a- 2f 2dn/	.	2dn/	.	2a-X/	.	2b-\)	.	2ff\)	.
8BB-/	.	.	.	.	.	.	.	.	.	.
8r	.	.	.	.	.	.	.	.	.	.
8Dn\	2ryy	.	4d/	.	4a-/	.	4b-\	.	8gg-\	.
8r	.	.	.	.	.	.	.	.	8ff\	.
8F\	.	.	4r	.	4r	.	4r	.	8b-\	.
8r	.	.	.	.	.	.	.	.	8ddn\	.
=47	=47	=47	=47	=47	=47	=47	=47	=47	=47	=47
4E- 4EE-/	2.b- 2.g- 2.e-/	.	1e-	.	1gn	.	2b-\	.	8.ff\L	.
.	.	.	.	.	.	.	.	.	16ee-\Jk	.
8GGn/	.	.	.	.	.	.	.	.	4ee-\	.
8r	.	.	.	.	.	.	.	.	.	.
8BB-/	.	.	.	.	.	.	8cc\	.	2r	.
8r	.	.	.	.	.	.	8b-\	.	.	.
8E-\	4r	.	.	.	.	.	8gn/	.	.	.
8r	.	.	.	.	.	.	8ee-\	.	.	.
=48	=48	=48	=48	=48	=48	=48	=48	=48	=48	=48
4A- 4AA-\	2.a- 2.g- 2.e- 2.c/	.	2c/	.	2g-/	.	2a-/	.	2ee-\	.
8C/	.	.	.	.	.	.	.	.	.	.
8r	.	.	.	.	.	.	.	.	.	.
8E-\	.	.	4c/	.	4g-/	.	4a-/	.	8ff\	.
8r	.	.	.	.	.	.	.	.	8ee-\	.
!	!	!	!	!	!LO:TX:a:t=dim	!	!LO:TX:a:t=dim	!	!	!
8A-\	4r	.	4r	.	4r	.	4r	.	8a-/	.
!	!	!	!	!	!	!	!	!	!LO:TX:a:t=dim	!
8r	.	.	.	.	.	.	.	.	8cc\	.
=49	=49	=49	=49	=49	=49	=49	=49	=49	=49	=49
4.D- 4.DD-/	2.a- 2.f 2.d-/	.	2.d-/	.	2.f/	.	2a-/	.	8.ee-\L	.
.	.	.	.	.	.	.	.	.	16dd-\Jk	.
.	.	.	.	.	.	.	.	.	4dd-\	.
8FF/	.	.	.	.	.	.	.	.	.	.
8r	.	.	.	.	.	.	8b-/	.	2r	.
8AA-/	.	.	.	.	.	.	8a-/	.	.	.
8r	4r	.	4d-/	.	4f/	.	8f/	.	.	.
8D-\	.	.	.	.	.	.	8dd-\	.	.	.
=50	=50	=50	=50	=50	=50	=50	=50	=50	=50	=50
2G- 2GG-\	2d- 2B-/	.	2g-/	.	2g-/	.	4b-\	.	(2dd-\	.
.	.	.	.	.	.	.	8b-\	.	.	.
.	.	.	.	.	.	.	8r	.	.	.
4G- 4GG-\	4e- 4d- 4B-/	.	4gn/	.	2b-\	.	4.dd-\	.	4ee-\)	.
4Gn 4GGn\	4en 4d- 4B-/	.	4r	.	.	.	.	.	4een\	.
.	.	.	.	.	.	.	8dd-\	.	.	.
=51	=51	=51	=51	=51	=51	=51	=51	=51	=51	=51
.	.	.	.	.	.	.	8qqb-/	.	8qqdd-/	.
4.A- 4.AA-\	4.f 4.d- 4.A-/	.	4.f 4.d- 4.A-/	.	2a-/	.	2.dd-\	.	2.ff\	.
8A- 8AA-\	8a-/	.	8a-/	.	.	.	.	.	.	.
8F\L	8f/L	.	4f/	.	8f/L	.	.	.	.	.
8A-\J	8a-/J	.	.	.	8a-/J	.	.	.	.	.
8D-\L	8d-/L	.	4a-/	.	8d-/L	.	4dd-\	.	4ff\	.
8F\J	8f/J	.	.	.	8f/J	.	.	.	.	.
=52	=52	=52	=52	=52	=52	=52	=52	=52	=52	=52
4AA-/	4a- 4e- 4c/	.	4A-/	.	4e-/	.	2cc\	.	(4gg-\	.
4r	4r	.	8A-/	.	8e-/	.	.	.	8.ff\L)	.
.	.	.	8r	.	8r	.	.	.	.	.
.	.	.	.	.	.	.	.	.	16ee-\Jk	.
4A-\	4g- 4c/	.	4.A-/	.	8.g-/L	.	4a-/	.	8.ee-\L	.
.	.	.	.	.	16f/Jk	.	.	.	16dd-\Jk	.
4A-\	4g- 4c/	.	.	.	8.f/L	.	8.a-/	.	8.dd-\L	.
.	.	.	8A-/	.	.	.	.	.	.	.
.	.	.	.	.	16e-/Jk	.	16a-/	.	16cc\Jk	.
=53	=53	=53	=53	=53	=53	=53	=53	=53	=53	=53
4A- 4AA-;\	5g- 5c;/	.	4A-;/	.	4e-;/	.	4g-;/	.	4cc;\	.
.	10b-\L	.	.	.	.	.	.	.	.	.
4r	.	.	4r	.	4r	.	4r	.	4r	.
.	10a-\	.	.	.	.	.	.	.	.	.
.	10dd-\J	.	.	.	.	.	.	.	.	.
2r	8cc\L	.	2r	.	2r	.	2r	.	2r	.
.	8ff\	.	.	.	.	.	.	.	.	.
.	8ee-\	.	.	.	.	.	.	.	.	.
.	8bb-\J	.	.	.	.	.	.	.	.	.
=54	=54	=54	=54	=54	=54	=54	=54	=54	=54	=54
1r	8aa-^^\L	.	1ryy	.	1ryy	.	1ryy	.	1ryy	.
.	8ggn^^\	.	.	.	.	.	.	.	.	.
.	8gg-X^^\	.	.	.	.	.	.	.	.	.
.	8ff^^\J	.	.	.	.	.	.	.	.	.
.	8ee-^^\L	.	.	.	.	.	.	.	.	.
.	8dd-^^\	.	.	.	.	.	.	.	.	.
.	8cc^^\	.	.	.	.	.	.	.	.	.
.	[8b-^^\J	.	.	.	.	.	.	.	.	.
*clefG2	*	*	*	*	*	*	*	*	*	*
=55	=55	=55	=55	=55	=55	=55	=55	=55	=55	=55
2g- 2e- 2A-/	4.b-;\]	.	1ryy	.	1ryy	.	1ryy	.	1ryy	.
.	8an/	.	.	.	.	.	.	.	.	.
4g- 4e- 4c/	4a-X/	.	.	.	.	.	.	.	.	.
4r	4r	.	.	.	.	.	.	.	.	.
*clefF4	*	*	*	*	*	*	*	*	*	*
=56	=56	=56	=56	=56	=56	=56	=56	=56	=56	=56
4D- 4DD-/	8r	.	1r	.	1r	.	1r	.	4.dd-\	.
.	8A-/L	.	.	.	.	.	.	.	.	.
4r	8f 8d-/	.	.	.	.	.	.	.	.	.
.	8A-/J	.	.	.	.	.	.	.	8cc\	.
4D- 4DD-/	8r	.	.	.	.	.	.	.	8ee-\	.
.	8A-/L	.	.	.	.	.	.	.	8dd-\	.
4r	8f 8d-/	.	.	.	.	.	.	.	8f/	.
.	8A-/J	.	.	.	.	.	.	.	8b-/	.
=57	=57	=57	=57	=57	=57	=57	=57	=57	=57	=57
2C/	8r	.	2.A-/	.	4.c/	.	4.e-/	.	4.b-\	.
.	8A-/L	.	.	.	.	.	.	.	.	.
.	8g- 8e-/	.	.	.	.	.	.	.	.	.
.	8A-/J	.	.	.	8d-/	.	8f/	.	8a-/	.
4E-\	8r	.	.	.	8e-/	.	8g-/	.	4a-/	.
.	8A-/L	.	.	.	8e-/	.	8g-/	.	.	.
4AA-/	8g- 8e-/	.	4A-/	.	8d-/	.	8f/	.	4r	.
.	8A-/J	.	.	.	8c/	.	8en/	.	.	.
=58	=58	=58	=58	=58	=58	=58	=58	=58	=58	=58
4D- 4DD-\	8r	.	2d-/	.	4.d-/	.	4.f/	.	(4.dd-\	.
.	8A-/L	.	.	.	.	.	.	.	.	.
4r	8f 8d-/	.	.	.	.	.	.	.	.	.
.	8A-/J	.	.	.	8f/	.	8a-/	.	8cc\)	.
4D- 4DD-\	8r	.	4d-/	.	4f/	.	4a-/	.	8ee-\	.
*	*rep	*	*	*	*	*	*	*	*	*
.	8A-/L	.	.	.	.	.	.	.	8dd-\	.
4r	8f 8d-/	.	4r	.	4r	.	4r	.	8f/	.
.	8A-/J	.	.	.	.	.	.	.	8b-/	.
*	*Xrep	*	*	*	*	*	*	*	*	*
=59	=59	=59	=59	=59	=59	=59	=59	=59	=59	=59
2C/	8r	.	1A-	.	4.c/	.	4.e-/	.	4.b-\	.
.	8A-/L	.	.	.	.	.	.	.	.	.
.	8g- 8e-/	.	.	.	.	.	.	.	.	.
.	8A-/J	.	.	.	8d-/	.	8f/	.	8a-/	.
4E-\	8r	.	.	.	8e-/	.	8g-/	.	4a-/	.
*	*rep	*	*	*	*	*	*	*	*	*
.	8A-/L	.	.	.	8e-/	.	8g-/	.	.	.
4AA-/	8g- 8e-/	.	.	.	8d-/	.	8f/	.	4r	.
.	8A-/J	.	.	.	8c/	.	8en/	.	.	.
*	*Xrep	*	*	*	*	*	*	*	*	*
=60	=60	=60	=60	=60	=60	=60	=60	=60	=60	=60
4D-\	8r	.	2d-/	.	2d-/	.	2f/	.	4.dd-\	.
.	8A-/L	.	.	.	.	.	.	.	.	.
4r	8f 8d-/	.	.	.	.	.	.	.	.	.
.	8A-/J	.	.	.	.	.	.	.	8cc\	.
4BB-/	8r	.	4d-/	.	4d-/	.	4f/	.	8ee-\	.
.	8B-/L	.	.	.	.	.	.	.	8dd-\	.
4r	8f 8d-/	.	4r	.	4r	.	4r	.	8f/	.
.	8B-/J	.	.	.	.	.	.	.	8b-/	.
=61	=61	=61	=61	=61	=61	=61	=61	=61	=61	=61
!	!	!	!	!	!LO:N:vis=4	!	!	!	!	!
4FF/	8r	.	1c	.	4.c/	.	(4.e-/	.	4.b-\	.
.	8c/L	.	.	.	.	.	.	.	.	.
4r	8an 8e-/	.	.	.	.	.	.	.	.	.
.	8c/J	.	.	.	8d-/	.	8f/)	.	8an/	.
4F\	8r	.	.	.	4e-/	.	4g-/	.	4a/	.
*	*rep	*	*	*	*	*	*	*	*	*
.	8c/L	.	.	.	.	.	.	.	.	.
4r	8a 8e-/	.	.	.	8d-/	.	8f/	.	4r	.
.	8c/J	.	.	.	8f/	.	8an/	.	.	.
*	*Xrep	*	*	*	*	*	*	*	*	*
=62	=62	=62	=62	=62	=62	=62	=62	=62	=62	=62
.	.	.	.	.	.	.	.	.	(8qdd-/	.
4B- 4BB-\	2.b- 2.a- 2.f 2.dn/	.	2.dn/	.	4.a-/	.	4.b-\	.	2ff\)	.
8Dn\	.	.	.	.	.	.	.	.	.	.
8r	.	.	.	.	8a-/	.	8b-\	.	.	.
8F\	.	.	.	.	2a-/	.	2b-\	.	8gg-\	.
8r	.	.	.	.	.	.	.	.	8ff\	.
8B-\	4r	.	4d/	.	.	.	.	.	8b-\	.
8r	.	.	.	.	.	.	.	.	8ddn\	.
=63	=63	=63	=63	=63	=63	=63	=63	=63	=63	=63
4E- 4EE-/	2.b- 2.gn 2.e-/	.	1e-	.	1gn	.	2b-\	.	8ff\L	.
.	.	.	.	.	.	.	.	.	8ee-\J	.
8GGn/	.	.	.	.	.	.	.	.	4ee-\	.
8r	.	.	.	.	.	.	.	.	.	.
8BB-/	.	.	.	.	.	.	8cc\	.	2r	.
8r	.	.	.	.	.	.	8b-\	.	.	.
8E-\	4ryy	.	.	.	.	.	8gn/	.	.	.
8r	.	.	.	.	.	.	8ee-\	.	.	.
=64	=64	=64	=64	=64	=64	=64	=64	=64	=64	=64
4A- 4AA-\	2.a- 2.g- 2.e- 2.c/	.	2c/	.	2g-X/	.	2a-/	.	2ee-\	.
8C/	.	.	.	.	.	.	.	.	.	.
8r	.	.	.	.	.	.	.	.	.	.
8E-\	.	.	4c/	.	4g-/	.	4a-/	.	8ff\	.
8r	.	.	.	.	.	.	.	.	8ee-\	.
8A-\	4r	.	4r	.	4r	.	4r	.	8a-/	.
8r	.	.	.	.	.	.	.	.	8cc\	.
=65	=65	=65	=65	=65	=65	=65	=65	=65	=65	=65
4A- 4AA-\	2.a- 2.f 2.d-/	.	2.d-/	p	2.f/	p	2a-/	p	8.ee-\L	p
.	.	.	.	.	.	.	.	.	16dd-\Jk	.
8FF/	.	.	.	.	.	.	.	.	4dd-\	.
8r	.	.	.	.	.	.	.	.	.	.
8E-\	.	.	.	.	.	.	8b-\	.	2r	.
8r	.	.	.	.	.	.	8a-/	.	.	.
8A-\	4r	.	4d-/	.	4f/	.	8f/	.	.	.
8r	.	.	.	.	.	.	8dd-\	.	.	.
=66	=66	=66	=66	=66	=66	=66	=66	=66	=66	=66
*	*	*	*	*	*	*	*^	*	*	*
2G- 2GG-\	2d- 2B-/	.	2.g-/	.	2g-/	.	4b-/	8b-\	.	(2dd-\	.
.	.	.	.	.	.	.	.	8ryy	.	.	.
.	.	.	.	.	.	.	8b-\	4reyy	.	.	.
.	.	.	.	.	.	.	8re	.	.	.	.
4G- 4GG-\	4e- 4B-/	.	.	.	2b-\	.	4.dd-\	2reyy	.	4ee-\)	.
4Gn 4GGn\	4en 4d- 4B-/	.	4gn/	.	.	.	.	.	.	4een\	.
.	.	.	.	.	.	.	8dd-\	.	.	.	.
*	*	*	*	*	*	*	*v	*v	*	*	*
=67	=67	=67	=67	=67	=67	=67	=67	=67	=67	=67
.	.	.	.	.	.	.	(8qb-/	.	(8qdd-/	.
4.A- 4.AA-\	4.f 4.d- 4.A-/	.	2a-/	.	2a-/	.	2.dd-\)	.	2.ff\)	.
8A-\	8a-/	.	.	.	.	.	.	.	.	.
8F\L	8f/L	.	8f/L	.	8f/L	.	.	.	.	.
8A-\J	8a-/J	.	8a-/J	.	8a-/J	.	.	.	.	.
8D-\L	8d-/L	.	8d-/L	.	8d-/L	.	4dd-\	.	4ff\	.
8F\J	8f/J	.	8f/J	.	8f/J	.	.	.	.	.
=68	=68	=68	=68	=68	=68	=68	=68	=68	=68	=68
4AA-/	4g- 4e- 4A-/	.	4A-/	.	4e-/	.	2ee-\	.	4gg-\	.
4r	4r	.	8A-/	.	8e-/	.	.	.	8.ff\L	.
.	.	.	8r	.	8r	.	.	.	.	.
.	.	.	.	.	.	.	.	.	16ee-\Jk	.
!	!	!	!	!	!LO:N:vis=8	!	!	!	!LO:N:vis=8	!
4A- 4AA-\	4g- 4c/	.	4.A-/	.	(8.g-/L	.	4cc\	.	(8.ee-\L	.
.	.	.	.	.	16f/Jk)	.	.	.	16dd-\Jk)	.
!	!	!	!	!	!LO:N:vis=8	!	!	!	!LO:N:vis=8	!
4A- 4AA-\	4g- 4c/	.	.	.	8.f/L	.	8.a-/	.	(8.dd-\L	.
.	.	.	8A-/	.	.	.	.	.	.	.
.	.	.	.	.	16e-/Jk	.	16a-/	.	16cc\Jk)	.
=69	=69	=69	=69	=69	=69	=69	=69	=69	=69	=69
*	*Xtuplet	*	*	*	*	*	*	*	*	*
!	!LO:TUP:a:problem=klamra łukowa	!	!	!	!	!	!	!	!	!
2D- 2DD-/	12A-/L	.	4d-/	.	4f/	.	4a-/	.	4dd-\	.
.	12d-/	.	.	.	.	.	.	.	.	.
.	12f/J	.	.	.	.	.	.	.	.	.
!	!LO:TUP:a:problem=klamra łukowa	!	!	!	!	!	!	!	!	!
.	12a-/L	.	4r	.	4r	.	4r	.	4r	.
.	12f/	.	.	.	.	.	.	.	.	.
.	12d-/J	.	.	.	.	.	.	.	.	.
!	!LO:TUP:a:problem=klamra łukowa	!	!LO:N:vis=4	!LO:DY:a	!	!LO:DY:a	!	!LO:DY:a	!	!
2r	12A-/L	.	4.d-/	pp	4.f/	pp	4.a-/	pp	2r	.
.	12d-/	.	.	.	.	.	.	.	.	.
.	12f/J	.	.	.	.	.	.	.	.	.
!	!LO:TUP:a:problem=klamra łukowa	!	!	!	!	!	!	!	!	!
.	12a-/L	.	.	.	.	.	.	.	.	.
.	12f/	.	.	.	.	.	.	.	.	.
.	.	.	8d-/	.	8d-/	.	8f/	.	.	.
.	12d-/J	.	.	.	.	.	.	.	.	.
=70	=70	=70	=70	=70	=70	=70	=70	=70	=70	=70
!	!LO:TUP:a:problem=klamra łukowa	!	!	!	!	!	!	!	!	!
2E- 2AA-/	12A-/L	.	4A-/	.	4e-/	.	4g-/	.	2r	.
.	12e-/	.	.	.	.	.	.	.	.	.
.	12g-/J	.	.	.	.	.	.	.	.	.
!	!LO:TUP:a:problem=klamra łukowa	!	!	!	!	!	!	!	!	!
.	12a-/L	.	8A-/	.	8e-/	.	8g-/	.	.	.
.	12g-/	.	.	.	.	.	.	.	.	.
.	.	.	8r	.	8r	.	8r	.	.	.
.	12e-/J	.	.	.	.	.	.	.	.	.
!	!LO:TUP:a:problem=klamra łukowa	!	!	!	!	!	!	!	!LO:TX:a:t=8	!
2r	12A-/L	.	2r	.	2r	.	2r	.	(4cc\	.
.	12e-/	.	.	.	.	.	.	.	.	.
.	12g-/J	.	.	.	.	.	.	.	.	.
!	!LO:TUP:a:problem=klamra łukowa	!	!	!	!	!	!	!	!LO:N:vis=8	!
.	12a-/L	.	.	.	.	.	.	.	8.dd-\	.
.	12g-/	.	.	.	.	.	.	.	.	.
.	12e-/J	.	.	.	.	.	.	.	.	.
.	.	.	.	.	.	.	.	.	16ee-\)	.
=71	=71	=71	=71	=71	=71	=71	=71	=71	=71	=71
!	!LO:TUP:a:problem=klamra łukowa	!	!	!	!	!	!	!	!	!
2D- 2DD-/	12A-/L	.	2r	.	2r	.	2r	.	4dd-\	.
.	12d-/	.	.	.	.	.	.	.	.	.
.	12f/J	.	.	.	.	.	.	.	.	.
!	!LO:TUP:a:problem=klamra łukowa	!	!	!	!	!	!	!	!	!
.	12a-/L	.	.	.	.	.	.	.	8dd-\	.
.	12f/	.	.	.	.	.	.	.	.	.
.	.	.	.	.	.	.	.	.	8r	.
.	12d-/J	.	.	.	.	.	.	.	.	.
*	*rep	*	*	*	*	*	*	*	*	*
!	!LO:TX:b:t=V.S.	!	!	!	!	!	!	!	!	!
!	!LO:TUP:a:problem=klamra łukowa	!	!	!	!	!	!	!	!	!
2r	12A-/L	.	4.d-/	.	4.f/	.	4.a-/	.	2r	.
.	12d-/	.	.	.	.	.	.	.	.	.
.	12f/J	.	.	.	.	.	.	.	.	.
!	!LO:TUP:a:problem=klamra łukowa	!	!	!	!	!	!	!	!	!
.	12a-/L	.	.	.	.	.	.	.	.	.
.	12f/	.	.	.	.	.	.	.	.	.
.	.	.	8d-/	.	8d-/	.	8f/	.	.	.
.	12d-/J	.	.	.	.	.	.	.	.	.
*	*Xrep	*	*	*	*	*	*	*	*	*
=72	=72	=72	=72	=72	=72	=72	=72	=72	=72	=72
!	!LO:TUP:a:problem=klamra łukowa	!	!	!	!	!	!	!	!	!
2E- 2AA-/	12A-/L	.	4A-/	.	4e-/	.	4g-/	.	2r	.
.	12e-/	.	.	.	.	.	.	.	.	.
.	12g-/J	.	.	.	.	.	.	.	.	.
!	!LO:TUP:a:problem=klamra łukowa	!	!	!	!	!	!	!	!	!
.	12a-/L	.	8A-/	.	8e-/	.	8g-/	.	.	.
.	12g-/	.	.	.	.	.	.	.	.	.
.	.	.	8r	.	8r	.	8r	.	.	.
.	12e-/J	.	.	.	.	.	.	.	.	.
*	*rep	*	*	*	*	*	*	*	*	*
!	!LO:TUP:a:problem=klamra łukowa	!	!	!	!	!	!	!	!	!
2r	12A-/L	.	2r	.	2r	.	2r	.	4cc\	.
.	12e-/	.	.	.	.	.	.	.	.	.
.	12g-/J	.	.	.	.	.	.	.	.	.
!	!LO:TUP:a:problem=klamra łukowa	!	!	!	!	!	!	!	!	!
.	12a-/L	.	.	.	.	.	.	.	8.dd-\L	.
.	12g-/	.	.	.	.	.	.	.	.	.
.	12e-/J	.	.	.	.	.	.	.	.	.
.	.	.	.	.	.	.	.	.	16ee-\Jk	.
*	*Xrep	*	*	*	*	*	*	*	*	*
=73	=73	=73	=73	=73	=73	=73	=73	=73	=73	=73
!	!LO:TUP:a:problem=klamra łukowa	!	!	!	!	!	!	!	!	!
2D- 2DD-/	12A-/L	.	4r	.	4r	.	4r	.	4dd-\	.
.	12d-/	.	.	.	.	.	.	.	.	.
.	12f/J	.	.	.	.	.	.	.	.	.
!	!LO:TUP:a:problem=klamra łukowa	!	!	!	!	!	!	!	!	!
.	12a-/L	.	8.d-/	.	8.f/	.	8.a-/	.	8dd-\	.
.	12f/	.	.	.	.	.	.	.	.	.
.	.	.	.	.	.	.	.	.	8r	.
.	12d-/J	.	.	.	.	.	.	.	.	.
.	.	.	16d-/	.	16f/	.	16a-/	.	.	.
*	*rep	*	*	*	*	*	*	*	*	*
!	!LO:TUP:a:problem=klamra łukowa	!	!	!	!	!	!	!	!	!
2r	12A-/L	.	4d-/	.	4f/	.	4a-/	.	2r	.
.	12d-/	.	.	.	.	.	.	.	.	.
.	12f/J	.	.	.	.	.	.	.	.	.
!	!LO:TUP:a:problem=klamra łukowa	!	!	!	!	!	!	!	!	!
.	12a-/L	.	8d-/	.	8f/	.	8a-/	.	.	.
.	12f/	.	.	.	.	.	.	.	.	.
.	.	.	8r	.	8r	.	8r	.	.	.
.	12d-/J	.	.	.	.	.	.	.	.	.
*	*Xrep	*	*	*	*	*	*	*	*	*
=74	=74	=74	=74	=74	=74	=74	=74	=74	=74	=74
2A- 2AA-;\	2a- 2g- 2e- 2A-;/	.	2c;/	.	2g-;/	.	2a-;/	.	2ee-;\	.
2r	2r	.	2c/	.	2g-/	.	2a-/	.	2ee-\	.
=75	=75	=75	=75	=75	=75	=75	=75	=75	=75	=75
2D- 2DD-;/	2a- 2f 2d-;/	.	2d-;/	.	2f;/	.	2a-;/	.	2dd-;\	.
!	!LO:TX:t=P:problem=nieczytelne imię i nazwisko	!	!	!	!	!	!	!	!	!
!	!LO:TX:b:t=Skryptum Wł. Hofmuft\n7 VII 1888	!	!	!	!	!	!	!	!	!
!	!LO:TX:a:t=fine	!	!	!	!	!	!	!	!	!
!	!LO:TX:a:t=fine	!	!LO:TX:a:t=fine	!	!LO:TX:a:t=fine	!	!LO:TX:a:t=fine	!	!LO:TX:a:t=fine	!
2r	2r	.	2r	.	2r	.	2r	.	2r	.
==	==	==	==	==	==	==	==	==	==	==
*-	*-	*-	*-	*-	*-	*-	*-	*-	*-	*-
!!!system-decoration: s1,s2,s3,s4{(s5,s6)}
!!!ENC: Marcin Jachim
!!!END: 2020-11-08
!!!ENC: Leszek Kubiak
!!!END: 2021-11-17
